X:120
T:Crazy Jane. RH.120
R:Reel
S:Rev.R.Harrison’s MS,c1815,Cumbria
O:England
A:Temple Sowerby,Cumbria
Z:vmp.Simon Wilson. Review PJH, 2008.
M:C|
L:1/8
Q:1/2=90
K:D
B|A2FG ADDd|cedf eAAg|fdad bdc’d|d’/c’/b/c’/ d’a fdc:|!
a|d’afa dafa|bagb ebgb|d’afa dafa|(e/f/g) Ag fdda|!
d’afa dafa|bagb ebgb|d’afa dafa|(b/c’/d’) ag fdd|]

